X:19007
T:Scan Testers No 2
R:Reel
C:Scan Tester
O:England
M:4/4
L:1/8
Q:1/4=160
K:G
Bc|"G"d2dd d2d2|d2^c2"Am"=c2B2|"D"A3B A2G2|"Bm"F6DE|
"Bm"F2EF "G"G2FG|"D"A2d4cB|A2G2"Bm"F2E2|"G"D6:|
|:Bc|"G"d2G2 B2AB|"Am"c2E2"D"A3B|"Am"c2e2"G"d2c2|"G"B4 B3c|
"G"d2G2 B2AB|"Am"c2E2"D"A3B|"Am"c2ec "G"B2A2|"G"G6:|

